X:1
T:Giga
T:Giga
T:Lord Elcho's Favourite
T:James Oswald
C:James Oswald
L:1/8
M:6/8
K:Gmin
V:1 treble 
V:1
 F | DGG TG2 F | GBc dgf | Td2 c (B/c/d)c | BFF TF2 F | DGG TG2 F | GBc dgf | dbg fdc | BGG G2 :: %9
 f | g2 b fdB | cdf g2 b | fdc (B/c/d)c | BFF F2 B | FBF F GBF | GBc dgf | dbg fdc | BGG TG2 :| %18

